assets/dist/images/home/logos/finalsite-logo-vero.svg

<svg xmlns="http://www.w3.org/2000/svg" xmlns:xlink="http://www.w3.org/1999/xlink" width="107" height="50" viewBox="0 0 107 50">
  <defs>
    <polygon id="finalsite-logo-vero-a" points="0 23.445 106.425 23.445 106.425 .1 0 .1"/>
    <polygon id="finalsite-logo-vero-c" points="0 23.445 106.425 23.445 106.425 .1 0 .1"/>
    <polygon id="finalsite-logo-vero-e" points="0 23.445 106.425 23.445 106.425 .1 0 .1"/>
    <polygon id="finalsite-logo-vero-g" points="0 23.445 106.425 23.445 106.425 .1 0 .1"/>
    <polygon id="finalsite-logo-vero-i" points="0 23.445 106.425 23.445 106.425 .1 0 .1"/>
    <polygon id="finalsite-logo-vero-k" points="0 23.445 106.425 23.445 106.425 .1 0 .1"/>
    <polygon id="finalsite-logo-vero-m" points="0 23.445 106.425 23.445 106.425 .1 0 .1"/>
    <polygon id="finalsite-logo-vero-o" points="0 .266 20.17 .266 20.17 12 0 12"/>
  </defs>
  <g fill="none" fill-rule="evenodd" transform="translate(0 13)">
    <polygon fill="#163052" fill-rule="nonzero" points="29.057 19.779 26.089 19.779 26.089 3.741 36.215 3.741 36.215 6.211 29.057 6.211 29.057 10.6 34.694 10.6 34.694 13.019 29.057 13.019"/>
    <polygon fill="#163052" fill-rule="nonzero" points="40.206 19.779 37.537 19.779 37.537 8.355 40.206 7.906"/>
    <g transform="translate(0 .15)">
      <path fill="#163052" fill-rule="nonzero" d="M52.6514051 19.6290225L49.9826698 19.6290225 49.9826698 12.2214112C49.9826698 11.4482262 49.8080796 10.8496314 49.4339579 10.4505682 49.0847775 10.0515049 48.6358314 9.8519733 48.1370024 9.8519733 47.4386417 9.8519733 46.8400469 10.1512707 46.3162763 10.774807 45.7925059 11.3731525 45.5181499 12.2962356 45.5181499 13.5433082L45.5181499 19.6290225 42.8494145 19.6290225 42.8494145 7.7566419 45.2936768 7.7566419 45.2936768 10.5002017C46.1416862 8.50488547 47.3388759 7.50722737 48.8852459 7.50722737 49.9327869 7.50722737 50.8057377 7.8317157 51.5539813 8.50488547 52.3022249 9.15361267 52.6514051 10.3258609 52.6514051 11.9719967L52.6514051 19.6290225zM62.4533459 13.5931412C58.9867335 13.5931412 57.2655239 14.4162091 57.2655239 16.0620955 57.2655239 16.5609246 57.440114 16.9851787 57.7892944 17.334359 58.1384747 17.6832899 58.6622452 17.8581295 59.3608553 17.8581295 60.3832054 17.8581295 61.1563904 17.5338906 61.6801609 16.8854128 62.2039314 16.2369351 62.4533459 15.513633 62.4533459 14.6903157L62.4533459 13.5931412zM65.4213787 19.6289726L62.8773506 19.6289726C62.6528775 18.9056705 62.5032288 18.107544 62.4785368 17.2345932 61.7549852 19.0054363 60.4330883 19.8783871 58.4627136 19.8783871 57.2904653 19.8783871 56.3426902 19.5292068 55.6196374 18.8308461 54.896086 18.1324855 54.5469056 17.2595347 54.5469056 16.2119937 54.5469056 13.4933754 56.941285 12.1215955 61.7302932 12.1215955L62.5032288 12.1215955 62.5032288 11.2237033C62.5032288 10.0015721 61.6552195 9.37803585 59.9843916 9.37803585 58.3631972 9.37803585 57.440114 10.0015721 57.215641 11.2237033L54.9459688 10.8745229C55.0706761 9.8768649 55.5695051 9.07873837 56.4673974 8.43026062 57.3655391 7.78178287 58.6622452 7.48248548 60.3333225 7.48248548 61.2561562 7.48248548 62.0043998 7.55730982 62.5780532 7.70695852 63.1517066 7.85660722 63.6505356 8.10602175 64.0495988 8.48014357 64.448662 8.85426532 64.7232674 9.22838715 64.8726667 9.67733325 65.0223154 10.1013379 65.0973893 10.82464 65.0973893 11.8472395L65.0973893 17.2096517C65.0721983 18.0077782 65.1969056 18.8056552 65.4213787 19.6289726z"/>
      <mask id="finalsite-logo-vero-b" fill="#fff">
        <use xlink:href="#finalsite-logo-vero-a"/>
      </mask>
      <polygon fill="#163052" fill-rule="nonzero" points="67.267 19.629 69.936 19.629 69.936 3.592 67.267 3.592" mask="url(#finalsite-logo-vero-b)"/>
      <mask id="finalsite-logo-vero-d" fill="#fff">
        <use xlink:href="#finalsite-logo-vero-c"/>
      </mask>
      <path fill="#163052" fill-rule="nonzero" d="M71.7067742,16.8854628 L74.2258609,16.4115751 C74.5999827,17.3842918 75.4479923,17.85793 76.769889,17.85793 C78.4409663,17.85793 79.2640343,17.3591009 79.2640343,16.3866337 C79.2640343,16.0621454 79.1393273,15.8127309 78.8647215,15.6131993 C78.6153068,15.4139171 78.2910683,15.2642683 77.9421375,15.2143855 L75.7722308,14.8150728 C73.3776021,14.3661267 72.1804124,13.1938784 72.1804124,11.2985775 C72.1804124,10.2507871 72.5545342,9.35314425 73.3279686,8.62959277 C74.0762122,7.90654005 75.2235188,7.5324183 76.7200058,7.5324183 C79.214151,7.5324183 80.7605213,8.45525197 81.3092333,10.3009195 L78.9146047,10.774807 C78.66519,9.87666532 77.9421375,9.4279686 76.769889,9.4279686 C75.3482265,9.4279686 74.6246747,9.87666532 74.6246747,10.774807 C74.6246747,11.3983433 75.1985775,11.822348 76.345884,12.0468211 L78.8899125,12.5703421 C80.860038,12.9696548 81.8576955,14.1167122 81.8576955,15.962629 C81.8576955,17.2595845 81.3588668,18.2572426 80.336517,18.8807789 C79.3139168,19.5292567 78.116478,19.8532461 76.7200058,19.8532461 C75.4976257,19.8532461 74.4251431,19.6038316 73.5023094,19.1301934 C72.6046665,18.6563059 72.0058223,17.9080623 71.7067742,16.8854628" mask="url(#finalsite-logo-vero-d)"/>
      <mask id="finalsite-logo-vero-f" fill="#fff">
        <use xlink:href="#finalsite-logo-vero-e"/>
      </mask>
      <path fill="#163052" fill-rule="nonzero" d="M94.9023248,17.5338407 L94.9023248,19.6289227 C94.104198,19.8035128 93.4806615,19.8783372 93.0566573,19.8783372 C92.3331052,19.8783372 91.7095695,19.7286885 91.21074,19.4543326 C90.687219,19.1799766 90.3130972,18.7809133 90.0883747,18.2820843 C89.8389607,17.7832552 89.739444,17.0100703 89.739444,15.9874707 L89.739444,9.85187355 L88.2676493,9.85187355 L88.2676493,7.781733 L89.8888433,7.781733 L89.8888433,4.48946136 L92.3331052,4.48946136 L92.3331052,7.781733 L94.7277345,7.781733 L94.7277345,9.85187355 L92.3331052,9.85187355 L92.3331052,15.6382904 C92.3331052,16.3865339 92.457813,16.885363 92.732418,17.159719 C93.006525,17.434075 93.5053537,17.5587822 94.2535972,17.5587822 C94.4284373,17.5587822 94.65291,17.5587822 94.9023248,17.5338407" mask="url(#finalsite-logo-vero-f)"/>
      <mask id="finalsite-logo-vero-h" fill="#fff">
        <use xlink:href="#finalsite-logo-vero-g"/>
      </mask>
      <path fill="#163052" fill-rule="nonzero" d="M103.5819,12.2961358 C103.5819,11.4481264 103.307294,10.7497658 102.808465,10.2010539 C102.309637,9.6523419 101.6861,9.37798597 100.937857,9.37798597 C100.189613,9.37798597 99.5912677,9.6274005 99.092439,10.1262295 C98.5936095,10.6250585 98.3190045,11.3483606 98.2194877,12.2711944 L103.5819,12.2711944 L103.5819,12.2961358 Z M103.75649,15.837822 L106.175561,16.1620609 C105.851573,17.2345433 105.252977,18.1074941 104.355085,18.8058548 C103.457193,19.5042154 102.309637,19.8533958 100.937857,19.8533958 C99.2919705,19.8533958 97.970073,19.3046839 96.9724155,18.2072599 C95.9747572,17.1098361 95.4759277,15.6133489 95.4759277,13.7177986 C95.4759277,11.922014 95.9747572,10.4504683 96.9973568,9.27822015 C97.995015,8.10597187 99.3667942,7.50737707 101.112696,7.50737707 C102.808465,7.50737707 104.105671,8.08103047 105.028504,9.25327867 C105.951338,10.4005855 106.424976,11.8970726 106.424976,13.7177986 L106.424976,14.017096 L98.2943122,14.017096 C98.2943122,14.8152225 98.3691367,15.4637002 98.518785,15.9625293 C98.668434,16.4364169 98.9677312,16.8604216 99.4166775,17.2345433 C99.8656237,17.5837237 100.439028,17.7832552 101.112696,17.7832552 C102.38471,17.7583138 103.282603,17.1347775 103.75649,15.837822 Z" mask="url(#finalsite-logo-vero-h)"/>
      <mask id="finalsite-logo-vero-j" fill="#fff">
        <use xlink:href="#finalsite-logo-vero-i"/>
      </mask>
      <polygon fill="#163052" fill-rule="nonzero" points="86.322 19.629 83.654 19.629 83.654 8.206 86.322 7.757" mask="url(#finalsite-logo-vero-j)"/>
      <mask id="finalsite-logo-vero-l" fill="#fff">
        <use xlink:href="#finalsite-logo-vero-k"/>
      </mask>
      <path fill="#163052" fill-rule="nonzero" d="M40.4800264,5.18782201 C40.4800264,6.03583138 39.8066072,6.70925059 38.9585979,6.70925059 C38.1105885,6.70925059 37.4371693,6.03583138 37.4371693,5.18782201 C37.4371693,4.33981264 38.1105885,3.66639344 38.9585979,3.66639344 C39.7816658,3.64145199 40.4800264,4.33981264 40.4800264,5.18782201" mask="url(#finalsite-logo-vero-l)"/>
      <mask id="finalsite-logo-vero-n" fill="#fff">
        <use xlink:href="#finalsite-logo-vero-m"/>
      </mask>
      <path fill="#163052" fill-rule="nonzero" d="M86.2975238,5.16285562 C86.2975238,6.01086499 85.6241048,6.68428419 84.7758458,6.68428419 C83.9280855,6.68428419 83.2546665,6.01086499 83.2546665,5.16285562 C83.2546665,4.31484625 83.9280855,3.64142705 84.7758458,3.64142705 C85.5989138,3.64142705 86.2975238,4.31484625 86.2975238,5.16285562" mask="url(#finalsite-logo-vero-n)"/>
    </g>
    <g transform="translate(0 12)">
      <mask id="finalsite-logo-vero-p" fill="#fff">
        <use xlink:href="#finalsite-logo-vero-o"/>
      </mask>
      <path fill="#173051" fill-rule="nonzero" d="M16.7998809,0.26592 L10.6162903,5.36378667 C10.3226653,5.67392 9.84653715,5.67578667 9.5534184,5.36672 L3.37792781,0.307253333 L0.221459062,3.00192 C-0.0726721875,3.31178667 -0.0744440625,3.81338667 0.219180938,4.12138667 L9.5534184,11.7696533 C9.84653715,12.07792 10.3226653,12.0765867 10.6162903,11.76672 L19.9482496,4.07338667 C20.242634,3.76352 20.2433934,3.26192 19.9502747,2.95365333 L16.7998809,0.26592 Z" mask="url(#finalsite-logo-vero-p)"/>
    </g>
    <path fill="#129AC6" fill-rule="nonzero" d="M20.0301386,7.83098108 L10.6817337,0.220788621 C10.3879521,-0.0748694386 9.9094134,-0.0733362076 9.61410698,0.223855083 L0.222498985,7.87697797 C-0.0730615655,8.1741693 -0.0743322471,8.65483725 0.219703485,8.94998422 L3.39107073,11.4304966 L9.59174302,16.2788287 C9.88577873,16.5749979 10.3640633,16.5732091 10.6583532,16.2765289 L16.8671578,11.3908881 L20.0278513,8.90398732 C20.3231578,8.60705152 20.3241743,8.1266391 20.0301386,7.83098108"/>
  </g>
</svg>

<svg xmlns="http://www.w3.org/2000/svg" xmlns:xlink="http://www.w3.org/1999/xlink" width="107" height="50" viewBox="0 0 107 50"><defs><path id="a" d="M0 23.445h106.425V.1H0z"/><path id="c" d="M0 23.445h106.425V.1H0z"/><path id="e" d="M0 23.445h106.425V.1H0z"/><path id="g" d="M0 23.445h106.425V.1H0z"/><path id="i" d="M0 23.445h106.425V.1H0z"/><path id="k" d="M0 23.445h106.425V.1H0z"/><path id="m" d="M0 23.445h106.425V.1H0z"/><path id="o" d="M0 .266h20.17V12H0z"/></defs><g fill="none" fill-rule="evenodd"><path fill="#163052" fill-rule="nonzero" d="M29.057 32.779h-2.968V16.741h10.126v2.47h-7.158V23.6h5.637v2.419h-5.637zm11.149 0h-2.669V21.355l2.669-.449z"/><g transform="translate(0 13.15)"><path fill="#163052" fill-rule="nonzero" d="M52.651 19.629h-2.668v-7.408c0-.773-.175-1.371-.549-1.77a1.68 1.68 0 00-1.297-.599c-.698 0-1.297.3-1.82.923-.524.598-.799 1.521-.799 2.768v6.086H42.85V7.757h2.445V10.5c.848-1.995 2.045-2.993 3.591-2.993 1.048 0 1.92.325 2.669.998.748.649 1.097 1.82 1.097 3.467v7.657zm9.802-6.036c-3.466 0-5.187.823-5.187 2.47 0 .498.174.922.523 1.271.35.35.873.524 1.572.524 1.022 0 1.795-.324 2.32-.973a3.374 3.374 0 00.772-2.195v-1.097zm2.968 6.036h-2.544a8.891 8.891 0 01-.398-2.394c-.724 1.77-2.046 2.643-4.016 2.643-1.173 0-2.12-.349-2.843-1.047-.724-.699-1.073-1.571-1.073-2.619 0-2.719 2.394-4.09 7.183-4.09h.773v-.898c0-1.222-.848-1.846-2.519-1.846-1.62 0-2.544.624-2.768 1.846l-2.27-.35c.125-.997.624-1.795 1.521-2.444.899-.648 2.195-.948 3.866-.948.923 0 1.671.075 2.245.225.574.15 1.073.399 1.472.773s.673.748.823 1.197c.15.424.224 1.148.224 2.17v5.363c-.025.798.1 1.596.324 2.419z"/><mask id="b" fill="#fff"><use xlink:href="#a"/></mask><path fill="#163052" fill-rule="nonzero" mask="url(#b)" d="M67.267 19.629h2.669V3.592h-2.669z"/><mask id="d" fill="#fff"><use xlink:href="#c"/></mask><path fill="#163052" fill-rule="nonzero" d="M71.707 16.885l2.519-.473c.374.972 1.222 1.446 2.544 1.446 1.671 0 2.494-.499 2.494-1.471a.894.894 0 00-.4-.774 1.929 1.929 0 00-.922-.399l-2.17-.399c-2.394-.449-3.592-1.621-3.592-3.516 0-1.048.375-1.946 1.148-2.67.748-.722 1.896-1.097 3.392-1.097 2.494 0 4.04.923 4.59 2.769l-2.395.474c-.25-.898-.973-1.347-2.145-1.347-1.422 0-2.145.449-2.145 1.347 0 .623.574 1.047 1.72 1.272l2.545.523c1.97.4 2.968 1.547 2.968 3.393 0 1.297-.5 2.294-1.521 2.918-1.023.648-2.22.972-3.617.972-1.222 0-2.295-.25-3.218-.723-.897-.474-1.496-1.222-1.795-2.245" mask="url(#d)"/><mask id="f" fill="#fff"><use xlink:href="#e"/></mask><path fill="#163052" fill-rule="nonzero" d="M94.902 17.534v2.095c-.798.175-1.421.25-1.845.25-.724 0-1.347-.15-1.846-.425a2.435 2.435 0 01-1.123-1.172c-.249-.499-.349-1.272-.349-2.295V9.852h-1.471v-2.07h1.62V4.489h2.445v3.293h2.395v2.07h-2.395v5.786c0 .749.125 1.247.4 1.522.274.274.772.399 1.52.399.175 0 .4 0 .65-.025" mask="url(#f)"/><mask id="h" fill="#fff"><use xlink:href="#g"/></mask><path fill="#163052" fill-rule="nonzero" d="M103.582 12.296c0-.848-.275-1.546-.774-2.095a2.423 2.423 0 00-1.87-.823c-.748 0-1.347.25-1.846.748-.498.5-.773 1.222-.873 2.145h5.363v.025zm.174 3.542l2.42.324a5.143 5.143 0 01-1.82 2.644c-.899.698-2.046 1.047-3.418 1.047-1.646 0-2.968-.548-3.966-1.646-.997-1.097-1.496-2.594-1.496-4.49 0-1.795.499-3.267 1.521-4.439.998-1.172 2.37-1.77 4.116-1.77 1.695 0 2.993.573 3.916 1.745.922 1.148 1.396 2.644 1.396 4.465v.3h-8.13c0 .797.074 1.446.224 1.945.15.473.449.897.898 1.272.449.349 1.022.548 1.696.548 1.272-.025 2.17-.648 2.643-1.945z" mask="url(#h)"/><mask id="j" fill="#fff"><use xlink:href="#i"/></mask><path fill="#163052" fill-rule="nonzero" mask="url(#j)" d="M86.322 19.629h-2.668V8.206l2.668-.449z"/><mask id="l" fill="#fff"><use xlink:href="#k"/></mask><path fill="#163052" fill-rule="nonzero" d="M40.48 5.188a1.51 1.51 0 01-1.521 1.521 1.512 1.512 0 01-1.522-1.521c0-.848.674-1.522 1.522-1.522.823-.025 1.521.674 1.521 1.522" mask="url(#l)"/><mask id="n" fill="#fff"><use xlink:href="#m"/></mask><path fill="#163052" fill-rule="nonzero" d="M86.298 5.163c0 .848-.674 1.521-1.522 1.521a1.512 1.512 0 01-1.521-1.521c0-.848.673-1.522 1.52-1.522.824 0 1.523.674 1.523 1.522" mask="url(#n)"/></g><g transform="translate(0 25)"><mask id="p" fill="#fff"><use xlink:href="#o"/></mask><path fill="#173051" fill-rule="nonzero" d="M16.8.266l-6.184 5.098a.724.724 0 01-1.063.003L3.378.307.22 3.002a.82.82 0 00-.002 1.12l9.334 7.648a.725.725 0 001.063-.003l9.332-7.694a.822.822 0 00.002-1.12L16.8.267z" mask="url(#p)"/></g><path fill="#129AC6" fill-rule="nonzero" d="M20.03 20.831l-9.348-7.61a.752.752 0 00-1.068.003L.222 20.877A.761.761 0 00.22 21.95l3.171 2.48 6.2 4.849a.75.75 0 001.067-.002l6.21-4.886 3.16-2.487a.762.762 0 00.002-1.073"/></g></svg>
